X: 48
T:North Skelton 3, v 2
% Nottingham Music Database
S:Trad, via EF
M:4/4
L:1/4
K:D
G|"D"F/2G/2A/2F/2 DF|"G"G3/2F/2 EG|"D"F/2G/2A/2F/2 DF|"A7"EF GE|\
"D"F/2G/2A/2F/2 DF|
"G"G/2A/2B/2G/2 EG|"D"FA "A7"GF/2E/2|"D"D2 "A7"E2|"D"F/2D/2F/2A/2 dc|\
"G"Bd/2B/2 AG|
"D"FA/2F/2 d/2A/2F/2D/2|"A7"GF E2|"D"DF/2A/2 dA|"G"Bd/2B/2 AG|\
"D"F/2G/2A "A7"Bc|"D"d2 D||


